src/resources/flags/mg.svg

<svg height="336" viewBox="0 0 512 336" width="512" xmlns="http://www.w3.org/2000/svg"><g fill="none"><path d="m512 168h-344.276v-167.724h335.448a8.829 8.829 0 0 1 8.828 8.828z" fill="#ff4b55"/><path d="m167.724 168h344.276v158.897a8.829 8.829 0 0 1 -8.828 8.828h-335.448z" fill="#73af00"/><path d="m167.724.275v335.449h-158.896a8.829 8.829 0 0 1 -8.828-8.828v-317.793a8.829 8.829 0 0 1 8.828-8.828z" fill="#f5f5f5"/></g></svg>

<svg width="512" height="336" viewBox="0 0 512 336" xmlns="http://www.w3.org/2000/svg">
  <g fill="none">
    <path d="M512 168H167.724V.276h335.448A8.829 8.829 0 0 1 512 9.104V168z" fill="#FF4B55"/>
    <path d="M167.724 168H512v158.897a8.829 8.829 0 0 1-8.828 8.828H167.724V168z" fill="#73AF00"/>
    <path d="M167.724.275v335.449H8.828A8.829 8.829 0 0 1 0 326.896V9.103A8.829 8.829 0 0 1 8.828.275h158.896z" fill="#F5F5F5"/>
  </g>
</svg>
